X:1
T: Dancing Fingers
C:Muriel A Johnstone
R:Reel
%Q: 232
K:A
M:4/4
L:1/8
E2|:A2 ((3BAG) AE CE|FA GB AE CE|B2 ((3cB^A) BF DC|B,C DE FE FG|
A2 ((3BAG) AE CE|FA GB AE CA,|B,D CE DF EG|FA GB Ac Bd|
((3cBA) eA fA eA|cd eE FG Ac|((3dcB) fB gB fB|de fF GA Bd|
((3cBA) aA gA fA|ec AE FG Ac|dB cA BG AF|1ED CB, A,E FG:|2ED CB, A,2||
